icons/partly-cloudy.svg

<svg width="24" height="22" viewBox="0 0 24 22" fill="none" xmlns="http://www.w3.org/2000/svg">
<path d="M16.5933 11.6154C16.5635 11.6154 16.5369 11.6238 16.507 11.6238C15.3588 9.64422 13.2398 8.29673 10.7856 8.29673C7.68766 8.29673 5.10733 10.4274 4.37579 13.298C4.2993 13.2932 4.22634 13.2749 4.14837 13.2749C1.85676 13.2749 0 15.1316 0 17.4232C0 19.7148 1.85676 21.5716 4.14837 21.5716H16.5935C19.3431 21.5716 21.5715 19.3431 21.5715 16.5936C21.5715 13.844 19.3431 11.6155 16.5935 11.6155L16.5933 11.6154Z" fill="black"/>
<path d="M17.4282 10.0078C17.8896 10.0659 18.3292 10.182 18.7557 10.3296C19.4676 9.58459 19.9123 8.58064 19.9123 7.46726C19.9123 5.17566 18.0555 3.31889 15.7639 3.31889C13.7379 3.31889 12.0569 4.77248 11.6935 6.6924C13.9651 6.94945 16.0526 8.15414 17.4282 10.0078V10.0078Z" fill="black"/>
<path d="M14.934 0H16.5934V1.65935H14.934V0Z" fill="black"/>
<path d="M21.5714 6.63739H23.2307V8.29674H21.5714V6.63739Z" fill="black"/>
<path d="M19.2834 2.77476L20.4568 1.60136L21.6302 2.77476L20.4568 3.94816L19.2834 2.77476Z" fill="black"/>
<path d="M9.89813 2.77386L11.0715 1.60046L12.2449 2.77386L11.0715 3.94726L9.89813 2.77386Z" fill="black"/>
</svg>

<?xml version="1.0" encoding="utf-8"?>
<!-- Generator: Adobe Illustrator 25.4.1, SVG Export Plug-In . SVG Version: 6.00 Build 0)  -->
<svg version="1.1" id="Слой_1" xmlns="http://www.w3.org/2000/svg" xmlns:xlink="http://www.w3.org/1999/xlink" x="0px" y="0px"
	 viewBox="0 0 24 22" style="enable-background:new 0 0 24 22;" xml:space="preserve">
<style type="text/css">
	.st0{fill:#728DBC;}
</style>
<path class="st0" d="M16.6,11.6C16.6,11.6,16.5,11.6,16.6,11.6c-1.2-2-3.4-3.3-5.8-3.3c-3.1,0-5.7,2.1-6.4,5c-0.1,0-0.1,0-0.2,0
	c-2.3,0-4.1,1.9-4.1,4.1s1.9,4.1,4.1,4.1h12.4c2.7,0,5-2.2,5-5C21.6,13.8,19.3,11.6,16.6,11.6L16.6,11.6z"/>
<path class="st0" d="M17.4,10c0.5,0.1,0.9,0.2,1.3,0.3c0.7-0.7,1.2-1.7,1.2-2.9c0-2.3-1.9-4.1-4.1-4.1c-2,0-3.7,1.5-4.1,3.4
	C14,6.9,16.1,8.2,17.4,10L17.4,10z"/>
<path class="st0" d="M14.9,0h1.7v1.7h-1.7V0z"/>
<path class="st0" d="M21.6,6.6h1.7v1.7h-1.7V6.6z"/>
<path class="st0" d="M19.3,2.8l1.2-1.2l1.2,1.2l-1.2,1.2L19.3,2.8z"/>
<path class="st0" d="M9.9,2.8l1.2-1.2l1.2,1.2l-1.2,1.2L9.9,2.8z"/>
</svg>
